logo/planetscale.svg

<?xml version="1.0" encoding="UTF-8"?>
<svg width="256px" height="256px" viewBox="0 0 256 256" version="1.1" xmlns="http://www.w3.org/2000/svg" preserveAspectRatio="xMidYMid">
    <title>PlanetScale</title>
    <g>
        <path d="M256,128.044218 C255.976145,198.701382 198.701382,255.976145 128.044218,256 L128.044218,256 Z M128,0 C179.977309,0 224.718545,30.9806545 244.765091,75.4833455 L75.4833455,244.765091 C68.2193455,241.492945 61.3149091,237.562764 54.84736,233.050182 L159.8976,128 L128,128 L37.4903855,218.509382 C14.3269236,195.346036 0,163.346036 0,128 C0,57.30752 57.3075782,0 128,0 Z" fill="#000000"></path>
    </g>
</svg>

<svg viewBox="0 0 256 256" xmlns="http://www.w3.org/2000/svg"><path d="M256 128.04c-.03 70.65-57.3 127.93-127.96 127.95v0ZM128-.01c51.97 0 96.71 30.98 116.76 75.48L75.47 244.75c-7.27-3.28-14.17-7.21-20.64-11.72l105.05-105.06h-31.9l-90.51 90.5C14.3 195.3-.03 163.3-.03 127.96c0-70.7 57.3-128 128-128Z"/></svg>
